app/assets/images/heroicons/solid/document-currency-pound.svg

<svg width="24" height="24" viewBox="0 0 24 24" fill="none" xmlns="http://www.w3.org/2000/svg">
<path fill-rule="evenodd" clip-rule="evenodd" d="M3.75 3.375C3.75 2.33947 4.58947 1.5 5.625 1.5H9C11.0711 1.5 12.75 3.17893 12.75 5.25V7.125C12.75 8.16053 13.5895 9 14.625 9H16.5C18.5711 9 20.25 10.6789 20.25 12.75V20.625C20.25 21.6605 19.4105 22.5 18.375 22.5H5.625C4.58947 22.5 3.75 21.6605 3.75 20.625V3.375ZM14.25 5.25C14.25 3.93695 13.768 2.73648 12.9712 1.8159C16.3701 2.70377 19.0462 5.37988 19.9341 8.77881C19.0135 7.98204 17.8131 7.5 16.5 7.5H14.625C14.4179 7.5 14.25 7.33211 14.25 7.125V5.25ZM10.5762 14.8326C10.3755 14.08 10.571 13.247 11.159 12.659C12.0377 11.7803 13.4623 11.7803 14.341 12.659C14.6339 12.9519 15.1088 12.9519 15.4017 12.659C15.6945 12.3661 15.6945 11.8912 15.4017 11.5983C13.9372 10.1339 11.5628 10.1339 10.0983 11.5983C9.17361 12.5231 8.83365 13.8103 9.07544 15H8.25C7.83579 15 7.5 15.3358 7.5 15.75C7.5 16.1642 7.83579 16.5 8.25 16.5H9.40607C9.4482 17.0258 9.37912 17.5572 9.20028 18.0588L9.04371 18.498C8.94089 18.7864 9.0237 19.1083 9.25291 19.3113C9.48213 19.5143 9.81172 19.5576 10.0856 19.4206L10.5249 19.201C11.0261 18.9504 11.6064 18.9091 12.138 19.0863C13.047 19.3893 14.0392 19.3188 14.8962 18.8903L15.3356 18.6706C15.7061 18.4854 15.8562 18.0349 15.671 17.6644C15.4857 17.2939 15.0352 17.1438 14.6647 17.329L14.2254 17.5487C13.7242 17.7993 13.144 17.8405 12.6123 17.6633C12.0453 17.4743 11.4459 17.4306 10.8672 17.5285C10.9149 17.1879 10.9291 16.8434 10.9095 16.5H12C12.4142 16.5 12.75 16.1642 12.75 15.75C12.75 15.3358 12.4142 15 12 15H10.6211L10.5763 14.833L10.5762 14.8326Z" fill="black"/>
</svg>

<svg xmlns="http://www.w3.org/2000/svg" viewBox="0 0 24 24" fill="currentColor" aria-hidden="true" data-slot="icon">
  <path fill-rule="evenodd" d="M3.75 3.375c0-1.036.84-1.875 1.875-1.875H9a3.75 3.75 0 0 1 3.75 3.75v1.875c0 1.036.84 1.875 1.875 1.875H16.5a3.75 3.75 0 0 1 3.75 3.75v7.875c0 1.035-.84 1.875-1.875 1.875H5.625a1.875 1.875 0 0 1-1.875-1.875V3.375Zm10.5 1.875a5.23 5.23 0 0 0-1.279-3.434 9.768 9.768 0 0 1 6.963 6.963A5.23 5.23 0 0 0 16.5 7.5h-1.875a.375.375 0 0 1-.375-.375V5.25Zm-3.674 9.583a2.249 2.249 0 0 1 3.765-2.174.75.75 0 0 0 1.06-1.06A3.75 3.75 0 0 0 9.076 15H8.25a.75.75 0 0 0 0 1.5h1.156a3.75 3.75 0 0 1-.206 1.559l-.156.439a.75.75 0 0 0 1.042.923l.439-.22a2.113 2.113 0 0 1 1.613-.115 3.613 3.613 0 0 0 2.758-.196l.44-.22a.75.75 0 1 0-.671-1.341l-.44.22a2.113 2.113 0 0 1-1.613.114 3.612 3.612 0 0 0-1.745-.134c.048-.341.062-.686.042-1.029H12a.75.75 0 0 0 0-1.5h-1.379l-.045-.167Z" clip-rule="evenodd"/>
</svg>
